modules/feathericon/icons/timeline.svg

<?xml version="1.0" encoding="UTF-8"?>
<svg width="24px" height="24px" viewBox="0 0 24 24" version="1.1" xmlns="http://www.w3.org/2000/svg" xmlns:xlink="http://www.w3.org/1999/xlink">
    <!-- Generator: sketchtool 52.2 (67145) - http://www.bohemiancoding.com/sketch -->
    <title>timeline</title>
    <desc>Created with sketchtool.</desc>
    <g id="web-app" stroke="none" stroke-width="1" fill="none" fill-rule="evenodd">
        <g id="timeline" fill="#000000">
            <path d="M9.17070571,17 C9.58254212,15.8348076 10.6937812,15 12,15 C13.3062188,15 14.4174579,15.8348076 14.8292943,17 L20,17 L21,18 L20,19 L14.8292943,19 C14.4174579,20.1651924 13.3062188,21 12,21 C10.6937812,21 9.58254212,20.1651924 9.17070571,19 L3,19 L4,18 L3,17 L9.17070571,17 Z M12,19 C12.5522847,19 13,18.5522847 13,18 C13,17.4477153 12.5522847,17 12,17 C11.4477153,17 11,17.4477153 11,18 C11,18.5522847 11.4477153,19 12,19 Z M14,12 L12,14 L10,12 L7,12 C5.8954305,12 5,11.1045695 5,10 L5,5 C5,3.8954305 5.8954305,3 7,3 L17,3 C18.1045695,3 19,3.8954305 19,5 L19,10 C19,11.1045695 18.1045695,12 17,12 L14,12 Z M7,5 L7,10 L11,10 L12,11 L13,10 L17,10 L17,5 L7,5 Z" id="Shape"></path>
        </g>
    </g>
</svg>

<svg width="24" height="24" viewBox="0 0 24 24" xmlns="http://www.w3.org/2000/svg"><path d="M9.17 17a3.001 3.001 0 0 1 5.66 0H20l1 1-1 1h-5.17a3.001 3.001 0 0 1-5.66 0H3l1-1-1-1h6.17zM12 19a1 1 0 1 0 0-2 1 1 0 0 0 0 2zm2-7l-2 2-2-2H7a2 2 0 0 1-2-2V5a2 2 0 0 1 2-2h10a2 2 0 0 1 2 2v5a2 2 0 0 1-2 2h-3zM7 5v5h4l1 1 1-1h4V5H7z" fill="#000" fill-rule="evenodd"/></svg>
